icons/lines/map.svg

<svg xmlns="http://www.w3.org/2000/svg" width="24" height="24" viewBox="0 0 24 24" fill="none" stroke="currentColor" stroke-width="2" stroke-linecap="round" stroke-linejoin="round" >
  <path d="M22 9V15C22 17.5 21.5 19.25 20.38 20.38L14 14L21.73 6.27C21.91 7.06 22 7.96 22 9Z"/>
  <path d="M21.73 6.27L6.26999 21.73C3.25999 21.04 2 18.96 2 15V9C2 4 4 2 9 2H15C18.96 2 21.04 3.26 21.73 6.27Z"/>
  <path d="M20.38 20.38C19.25 21.5 17.5 22 15 22H9.00003C7.96003 22 7.06002 21.91 6.27002 21.73L14 14L20.38 20.38Z"/>
  <path d="M6.23977 7.98C6.91977 5.05 11.3198 5.05 11.9998 7.98C12.3898 9.7 11.3098 11.16 10.3598 12.06C9.66977 12.72 8.57979 12.72 7.87979 12.06C6.92979 11.16 5.83977 9.7 6.23977 7.98Z"/>
  <path d="M9.0946 8.70001H9.10359"/>
  </svg>

<svg xmlns="http://www.w3.org/2000/svg" width="24" height="24" viewBox="0 0 24 24" fill="none" stroke="currentColor" stroke-width="2" stroke-linecap="round" stroke-linejoin="round">
  <path d="M20.38 20.38C21.5 19.25 22 17.5 22 15V9c0-1.04-.09-1.94-.27-2.73L6.27 21.73c.79.18 1.69.27 2.73.27h6c2.5 0 4.25-.5 5.38-1.62L14 14" />
  <path d="M6.24 7.98c.68-2.93 5.08-2.93 5.76 0 .39 1.72-.69 3.18-1.64 4.08a1.8 1.8 0 0 1-2.48 0c-.95-.9-2.04-2.36-1.64-4.08" />
  <path d="M6.27 21.73C3.26 21.04 2 18.96 2 15V9c0-5 2-7 7-7h6c3.96 0 6.04 1.26 6.73 4.27" />
  <path d="M9.095 8.7h.01" />
</svg>
